X:1
T:Title
%%score { 1 | 2 }
L:1/8
Q:1/4=100
M:4/4
K:Eb
V:1 treble nm="Grand Piano"
V:2 bass 
V:1
 B3 c B2 G2 | [Ec]2 [Ec]2 [EB]4 | [FA]3 [GB] [FA]2 [DF]2 | [GB]2 [FA]2 G4 | B3 c B2 G2 | %5
w: J.~R.~Murray * * *|||||
 [Ec]2 [Ec]2 [EB]4 | [FB]3 [Fc] [Fd]2 [FB]2 | c2 =A2 [DB]4 | [Ge]3 [Ge] [Bd]2 [Ac]2 | %9
w: ||||
 [GB][GB][EG][FA] [GB]4 | c3 c B2 G2 | cBGE [DF]4 | [EG]3 [FA] [GB]4 |[M:9/8] c3 d e2- edc | %14
w: |||||
[M:4/4] B2 G2 [DG]2 [DF]2 | E6 z2 |] %16
w: ||
V:2
 [E,G,E]3 [E,A,E] [E,G,E]2 [E,B,E]2 | [A,,A,]2 [C,A,]2 [E,G,]4 | %2
 [B,,B,]3 [B,,B,] [B,,B,]2 [B,,B,]2 | [B,,B,]2 [D,B,]2 [E,B,E]4 | %4
 [E,G,E]3 [E,A,E] [E,G,E]2 [E,B,E]2 | [A,,A,]2 [C,A,]2 [E,G,]4 | [D,B,]3 [C,=A,] [B,,B,]2 [D,B,]2 | %7
 [E,G,E]2 [F,E]2 [B,,F,]4 | [E,B,]3 [E,B,] [E,C]2 [E,D]2 | [E,E][E,E][E,B,][E,B,] [E,B,]4 | %10
 [A,E]3 [A,E] [G,B,E]2 [E,B,E]2 | [E,A,E][E,G,E][E,B,E][E,G,] [B,,B,]4 | [E,B,]3 [E,B,] [E,E]4 | %13
[M:9/8][K:treble] [A,EA]3 [A,DA] [A,CA]2- [A,CA][A,DA][A,EA] | %14
[M:4/4] [B,EG]2[K:bass] [B,E]2 [B,,B,]2 [B,,A,]2 | [E,G,]6 z2 |] %16

